core/duo/artificial-intelligence/ai-generate-variation-spark.svg

<svg xmlns="http://www.w3.org/2000/svg" fill="none" viewBox="0 0 14 14" id="Ai-Generate-Variation-Spark--Streamline-Core">
  <desc>
    Ai Generate Variation Spark Streamline Icon: https://streamlinehq.com
  </desc>
  <g id="ai-generate-variation-spark--module-application-artificial-intelligence-ai">
    <path id="Vector" fill="#d7e0ff" d="M5.25602 8.24878H1.04634c-0.27352 0 -0.495254 0.22173 -0.495254 0.49526v4.20966c0 0.2735 0.221734 0.4953 0.495254 0.4953h4.20968c0.27353 0 0.49526 -0.2218 0.49526 -0.4953V8.74404c0 -0.27353 -0.22173 -0.49526 -0.49526 -0.49526Z" stroke-width="1"></path>
    <path id="Vector_2" fill="#d7e0ff" d="M12.9537 8.24878H8.74397c-0.27352 0 -0.49525 0.22173 -0.49525 0.49526v4.20966c0 0.2735 0.22173 0.4953 0.49525 0.4953h4.20973c0.2735 0 0.4952 -0.2218 0.4952 -0.4953V8.74404c0 -0.27353 -0.2217 -0.49526 -0.4952 -0.49526Z" stroke-width="1"></path>
    <path id="Vector_3" fill="#d7e0ff" d="M5.25602 0.551025H1.04634c-0.27352 0 -0.495254 0.221734 -0.495254 0.495255v4.20968c0 0.27352 0.221734 0.49526 0.495254 0.49526h4.20968c0.27353 0 0.49526 -0.22174 0.49526 -0.49526V1.04628c0 -0.273521 -0.22173 -0.495255 -0.49526 -0.495255Z" stroke-width="1"></path>
    <path id="Vector_4" stroke="#4147d5" stroke-linecap="round" stroke-linejoin="round" d="M5.25602 8.24878H1.04634c-0.27352 0 -0.495254 0.22173 -0.495254 0.49526v4.20966c0 0.2735 0.221734 0.4953 0.495254 0.4953h4.20968c0.27353 0 0.49526 -0.2218 0.49526 -0.4953V8.74404c0 -0.27353 -0.22173 -0.49526 -0.49526 -0.49526Z" stroke-width="1"></path>
    <path id="Vector_5" stroke="#4147d5" stroke-linecap="round" stroke-linejoin="round" d="M12.9537 8.24878H8.74397c-0.27352 0 -0.49525 0.22173 -0.49525 0.49526v4.20966c0 0.2735 0.22173 0.4953 0.49525 0.4953h4.20973c0.2735 0 0.4952 -0.2218 0.4952 -0.4953V8.74404c0 -0.27353 -0.2217 -0.49526 -0.4952 -0.49526Z" stroke-width="1"></path>
    <path id="Vector_6" stroke="#4147d5" stroke-linecap="round" stroke-linejoin="round" d="M5.25602 0.551025H1.04634c-0.27352 0 -0.495254 0.221734 -0.495254 0.495255v4.20968c0 0.27352 0.221734 0.49526 0.495254 0.49526h4.20968c0.27353 0 0.49526 -0.22174 0.49526 -0.49526V1.04628c0 -0.273521 -0.22173 -0.495255 -0.49526 -0.495255Z" stroke-width="1"></path>
    <path id="Vector 2136" fill="#ffffff" d="M7.92412 3.66931c-0.31867 -0.05544 -0.31867 -0.5129 0 -0.56834 1.15449 -0.20085 2.07273 -1.0802 2.32328 -2.224925l0.0192 -0.087747c0.069 -0.31495 0.5174 -0.31691 0.5891 -0.002575l0.0234 0.102259c0.2598 1.139318 1.1783 2.011238 2.3296 2.211538 0.3203 0.05572 0.3203 0.51552 0 0.57124 -1.1513 0.20029 -2.0698 1.07222 -2.3296 2.21154l-0.0234 0.10226c-0.0717 0.31433 -0.5201 0.31237 -0.5891 -0.00258l-0.0192 -0.08775c-0.25055 -1.14472 -1.16879 -2.02407 -2.32328 -2.22492Z" stroke-width="1"></path>
    <path id="Vector 2137" stroke="#4147d5" stroke-linecap="round" stroke-linejoin="round" d="M7.92412 3.66931c-0.31867 -0.05544 -0.31867 -0.5129 0 -0.56834 1.15449 -0.20085 2.07273 -1.0802 2.32328 -2.224925l0.0192 -0.087747c0.069 -0.31495 0.5174 -0.31691 0.5891 -0.002575l0.0234 0.102259c0.2598 1.139318 1.1783 2.011238 2.3296 2.211538 0.3203 0.05572 0.3203 0.51552 0 0.57124 -1.1513 0.20029 -2.0698 1.07222 -2.3296 2.21154l-0.0234 0.10226c-0.0717 0.31433 -0.5201 0.31237 -0.5891 -0.00258l-0.0192 -0.08775c-0.25055 -1.14472 -1.16879 -2.02407 -2.32328 -2.22492Z" stroke-width="1"></path>
  </g>
</svg>

<svg xmlns="http://www.w3.org/2000/svg" fill="none" viewBox="0 0 14 14"><g id="ai-generate-variation-spark--module-application-artificial-intelligence-ai"><path id="Vector" fill="#37d7ff" d="M5.256 8.249h-4.21a.495.495 0 0 0-.495.495v4.21c0 .273.222.495.495.495h4.21a.495.495 0 0 0 .495-.495v-4.21a.495.495 0 0 0-.495-.495Z"></path><path id="Vector_2" fill="#37d7ff" d="M12.954 8.249h-4.21a.495.495 0 0 0-.495.495v4.21c0 .273.221.495.495.495h4.21a.495.495 0 0 0 .495-.495v-4.21a.495.495 0 0 0-.495-.495Z"></path><path id="Vector_3" fill="#37d7ff" d="M5.256.551h-4.21a.495.495 0 0 0-.495.495v4.21c0 .273.222.495.495.495h4.21a.495.495 0 0 0 .495-.495v-4.21a.495.495 0 0 0-.495-.495Z"></path><path id="Vector_4" stroke="#3e3e3e" stroke-linecap="round" stroke-linejoin="round" d="M5.256 8.249h-4.21a.495.495 0 0 0-.495.495v4.21c0 .273.222.495.495.495h4.21a.495.495 0 0 0 .495-.495v-4.21a.495.495 0 0 0-.495-.495Z"></path><path id="Vector_5" stroke="#3e3e3e" stroke-linecap="round" stroke-linejoin="round" d="M12.954 8.249h-4.21a.495.495 0 0 0-.495.495v4.21c0 .273.221.495.495.495h4.21a.495.495 0 0 0 .495-.495v-4.21a.495.495 0 0 0-.495-.495Z"></path><path id="Vector_6" stroke="#3e3e3e" stroke-linecap="round" stroke-linejoin="round" d="M5.256.551h-4.21a.495.495 0 0 0-.495.495v4.21c0 .273.222.495.495.495h4.21a.495.495 0 0 0 .495-.495v-4.21a.495.495 0 0 0-.495-.495Z"></path><path id="Vector 2136" fill="#ffffff" d="M7.924 3.67c-.319-.056-.319-.514 0-.569A2.884 2.884 0 0 0 10.247.876l.02-.088c.069-.315.517-.317.589-.002l.023.102A2.899 2.899 0 0 0 13.21 3.1c.32.055.32.515 0 .57a2.899 2.899 0 0 0-2.33 2.212l-.023.103c-.072.314-.52.312-.59-.003l-.019-.088A2.884 2.884 0 0 0 7.924 3.67Z"></path><path id="Vector 2137" stroke="#3e3e3e" stroke-linecap="round" stroke-linejoin="round" d="M7.924 3.67c-.319-.056-.319-.514 0-.569A2.884 2.884 0 0 0 10.247.876l.02-.088c.069-.315.517-.317.589-.002l.023.102A2.899 2.899 0 0 0 13.21 3.1c.32.055.32.515 0 .57a2.899 2.899 0 0 0-2.33 2.212l-.023.103c-.072.314-.52.312-.59-.003l-.019-.088A2.884 2.884 0 0 0 7.924 3.67Z"></path></g></svg>
